X:34
T:The Old Grey Goose
R:jig
O:Ireland
M:6/8
L:1/8
K:Em
FGB      GFA | FGE E E2 | EDE  BdB | GFD  DDE | 
FGF      GAG | ABA  Bgf | ged  BBA | FGE E E2 :|
F  G2    GdB | GGB  ddB | G A2 Aec | AAc  eec |
A  G2    GdB | GGB  dgf | ged  BBA | FGE E E2 :|
def      eed | Bde  fgf | gfd  dad | dfa  gfe |
f (g2 g) (f2 | f)de fgf | ged  BBA | FGE E E2 :|
cBG      GAF | FGE E E2 | cBG  GdA | GFD D D2 |
cBF      GAF | FGE  Egf | ged  BBA | FGE E E2 :|
